!!!!SEGMENT: pl-wtm--r-1227--005_lodwigowski-edward-stefan--siedzi-sobie-zajac.krn
!!!cenid: 18xx:1945
!!!COM: Łodwigowski, Edward Stefan
!!!COM-rismid: pe30111147
!!!CDT: 1815/08/14-1895/11/12
!!!CNT: Polish
!!!OTL: Siedzi sobie zając
!!!PDT:
!!!AGN:
!!!SMS-siglum: PL-Wtm
!!!SMS-shelfmark: R 1227
!!!SMS-shelfwork: 005 W
!!!SMS-variant:
!!!SMS-altvar:
!!!NIFC-rismid: 1001084037
!!!URL-scan: http://repozytorium.nifc.pl/skany/pl-wtm-nut--r1226-1227
!!!ONB-nifc: UWAGA: No. 77
!!!OMD: Moderato
!!!AIN: 1 forte
!!!key:
**kern	**fing	**kern	**fing	**dynam
*part1	*part1	*part1	*part1	*part1
*staff2	*staff2	*staff1	*staff1	*
*Iforte	*	*Iforte	*	*
*I"Fortepian	*	*I"Fortepian	*	*
*>[A,B,B]	*>[A,B,B]	*>[A,B,B]	*>[A,B,B]	*>[A,B,B]
*>A	*>A	*>A	*>A	*>A
*clefF4	*	*clefG2	*	*
*k[]	*	*k[]	*	*
*C:	*	*C:	*	*
*M4/4	*	*M4/4	*	*
*met(c)	*	*met(c)	*	*
*all\right	*	*all\right	*	*
=1	=1	=1	=1	=1
*	*below	*	*	*
!	!	!LO:TX:a:Bi:t=No 77.	!	!
!	!	!LO:TX:a:i:t=Siedzi sobie zając etc. P. L. P.	!	!LO:DY:rj
[2C/	5	8ccL 8e\	1 4	f
.	.	8dd 8g\	2 5	.
.	.	8ee 8cc\	1 3	.
.	.	8ffJ 8dd\	2 4	.
8C/L]	.	4gg 4ee\	.	.
8G'/	1	.	.	.
8E'/	3	4gg 4ee 4cc\	4	.
8C'/J	5	.	.	.
=2	=2	=2	=2	=2
*	*above	*	*	*
4F\	3	4aa 4ff 4cc'\	.	.
4A\	2	4aa 4ff 4cc'\	.	.
*2\right	*	*2\right	*	*
2c^\	.	2gg 2ee 2cc^\	.	.
=3	=3	=3	=3	=3
[2C/	.	8ccL 8e'\	.	.
.	.	8dd 8g'\	.	.
.	.	8ee 8cc'\	.	.
.	.	8ffJ 8dd'\	.	.
8C/L]	.	4gg 4ee'\	.	.
8G/	.	.	.	.
8E/	.	4gg 4ee 4cc'\	4	.
8C/J	.	.	.	.
=4	=4	=4	=4	=4
4F\	3	4aa 4ff 4cc'\	.	.
4A\	2	4aa 4ff 4cc'\	.	.
2c^\	.	2gg 2ee 2cc^\	.	.
=5!|:	=5!|:	=5!|:	=5!|:	=5!|:
*>B	*>B	*>B	*>B	*>B
4C\	.	8eeL 8cc'\	1 3	.
.	.	8gg 8ee'\	3 5	.
4c\	.	8gg 8ee'\	.	.
.	.	8ggJ 8ee'\	.	.
4B^\	.	(8ggL 8ee^\	.	.
.	.	8ff 8dd\)	.	.
4c\	.	(8ff 8dd\	.	.
.	.	8eeJ 8cc\)	.	.
=6	=6	=6	=6	=6
4C\	.	8eeL 8cc'\	.	.
.	.	8gg 8ee'\	.	.
4c\	.	8gg 8ee'\	.	.
.	.	8ggJ 8ee'\	.	.
4B^\	.	(8ggL 8ee^\	.	.
.	.	8ff 8dd\)	.	.
4c\	.	(8ff 8dd\	.	.
.	.	8eeJ 8cc\)	.	.
=7	=7	=7	=7	=7
8C\L	5	4ee 4cc\	1 3	.
8E\J	3	.	1 2	.
4G\	1	4dd 4b\	.	.
2GG^>/	.	2gg 2dd 2b^\	.	.
=8	=8	=8	=8	=8
8C\L	3	4ee 4cc\	1 3	.
8E\J	2	.	.	.
4G\	.	4dd 4b 4g 4f\	1 2 4 5	.
2G 2C^^\	.	2cc 2g 2e^^\	.	.
=:|!	=:|!	=:|!	=:|!	=:|!
*-	*-	*-	*-	*-
!!!system-decoration: {p1}
!!!RDF**kern: > = above
!!!RDF**kern: < = below
!!!RDF**kern: | = vertical stroke
!!!ENC: Andrzej Kubiczek
!!!END: 2021-05-02
!!!ENC: Andrzej Gręziak
!!!END: 2021-04-17
